storage/app/icons/phosphoricons/duotone/moped-front-duotone.svg

<svg xmlns="http://www.w3.org/2000/svg" fill="currentColor" viewBox="0 0 256 256"><path d="M152 168v48a24 24 0 0 1-48 0v-48a24 24 0 0 1 48 0m-24-88a32 32 0 1 0-32-32 32 32 0 0 0 32 32" opacity=".2"/><path d="M208 40h-40.8a40 40 0 0 0-78.4 0H48a8 8 0 0 0 0 16h40.8a40 40 0 0 0 12.58 21.82A64.08 64.08 0 0 0 64 136v64a16 16 0 0 0 16 16h16a32 32 0 0 0 64 0h16a16 16 0 0 0 16-16v-64a64.08 64.08 0 0 0-37.38-58.18A40 40 0 0 0 167.2 56H208a8 8 0 0 0 0-16m-64 176a16 16 0 0 1-32 0v-48a16 16 0 0 1 32 0Zm32-80v64h-16v-32a32 32 0 0 0-64 0v32H80v-64a48 48 0 0 1 96 0m-72-88a24 24 0 1 1 24 24 24 24 0 0 1-24-24"/></svg>

<svg xmlns="http://www.w3.org/2000/svg" viewBox="0 0 256 256" fill="currentColor"><path d="M152,168v48a24,24,0,0,1-48,0V168a24,24,0,0,1,48,0ZM128,80A32,32,0,1,0,96,48,32,32,0,0,0,128,80Z" opacity="0.2"/><path d="M208,40H167.2a40,40,0,0,0-78.4,0H48a8,8,0,0,0,0,16H88.8a40,40,0,0,0,12.58,21.82A64.08,64.08,0,0,0,64,136v64a16,16,0,0,0,16,16H96a32,32,0,0,0,64,0h16a16,16,0,0,0,16-16V136a64.08,64.08,0,0,0-37.38-58.18A40,40,0,0,0,167.2,56H208a8,8,0,0,0,0-16ZM144,216a16,16,0,0,1-32,0V168a16,16,0,0,1,32,0Zm32-80v64H160V168a32,32,0,0,0-64,0v32H80V136a48,48,0,0,1,96,0ZM104,48a24,24,0,1,1,24,24A24,24,0,0,1,104,48Z"/></svg>
